docs/images/blog-bg.svg

<svg id="Группа_1" data-name="Группа 1" xmlns="http://www.w3.org/2000/svg" width="1627" height="369"><defs><filter id="filter" x="1685" y="6174" width="66" height="66" filterUnits="userSpaceOnUse"><feOffset result="offset" dy="3" in="SourceAlpha"/><feGaussianBlur result="blur" stdDeviation="3.162"/><feFlood result="flood" flood-color="#fe3e57" flood-opacity=".5"/><feComposite result="composite" operator="in" in2="blur"/><feBlend result="blend" in="SourceGraphic"/></filter></defs><path d="M1717.5 6180a23.5 23.5 0 1023.5 23.5 23.5 23.5 0 00-23.5-23.5zm0 42.19a18.7 18.7 0 1118.7-18.69 18.689 18.689 0 01-18.7 18.69zm.02-24.3a5.605 5.605 0 105.59 5.63 5.614 5.614 0 00-5.59-5.63z" transform="translate(-124 -5871)" fill-rule="evenodd" fill="#fe3e57" filter="url(#filter)"/><path d="M205.4 5899.77a2.155 2.155 0 102.161 2.15 2.154 2.154 0 00-2.161-2.15zm-14.406 0a2.155 2.155 0 102.16 2.15 2.155 2.155 0 00-2.162-2.15zm0-14.39a2.16 2.16 0 102.16 2.16 2.163 2.163 0 00-2.162-2.16zm-14.407 0a2.16 2.16 0 100 4.32 2.16 2.16 0 10-.002-4.32zm21.61 21.58a2.155 2.155 0 102.16 2.16 2.156 2.156 0 00-2.157-2.16zm14.407 0a2.155 2.155 0 102.161 2.16 2.157 2.157 0 00-2.165-2.16zm-14.404-14.39a2.16 2.16 0 102.16 2.16 2.163 2.163 0 00-2.16-2.16zm-14.407 0a2.16 2.16 0 102.161 2.16 2.163 2.163 0 00-2.166-2.16zm36.017 35.96a2.16 2.16 0 102.16 2.16 2.162 2.162 0 00-2.165-2.16zm-14.407 0a2.16 2.16 0 102.161 2.16 2.162 2.162 0 00-2.164-2.16zm-14.406 0a2.16 2.16 0 102.16 2.16 2.163 2.163 0 00-2.165-2.16zm28.813-14.38a2.155 2.155 0 102.16 2.16 2.162 2.162 0 00-2.165-2.16zm-14.407 0a2.155 2.155 0 102.161 2.16 2.162 2.162 0 00-2.164-2.16zm-14.406 0a2.155 2.155 0 102.16 2.16 2.163 2.163 0 00-2.165-2.16zm-14.407 0a2.155 2.155 0 100 4.31 2.155 2.155 0 10-.005-4.31zm21.61 21.58a2.155 2.155 0 102.16 2.15 2.154 2.154 0 00-2.16-2.15zm14.407 0a2.155 2.155 0 102.161 2.15 2.154 2.154 0 00-2.168-2.15zm-14.407-14.39a2.16 2.16 0 102.16 2.16 2.163 2.163 0 00-2.16-2.16zm16.567 2.16a2.161 2.161 0 10-2.161 2.16 2.163 2.163 0 002.156-2.16zm12.247-2.16a2.16 2.16 0 102.16 2.16 2.163 2.163 0 00-2.165-2.16zm-43.221 0a2.16 2.16 0 102.161 2.16 2.163 2.163 0 00-2.166-2.16zm7.2 35.96a2.16 2.16 0 102.16 2.16 2.163 2.163 0 00-2.161-2.16zm14.406-14.38a2.155 2.155 0 102.161 2.15 2.154 2.154 0 00-2.16-2.15zm-14.406 0a2.155 2.155 0 102.16 2.15 2.155 2.155 0 00-2.161-2.15zm-14.407 0a2.155 2.155 0 100 4.31 2.155 2.155 0 10-.001-4.31zm21.61 7.19a2.155 2.155 0 102.16 2.16 2.156 2.156 0 00-2.156-2.16zm-14.407 0a2.155 2.155 0 102.161 2.16 2.157 2.157 0 00-2.162-2.16zm-7.2 21.57a2.16 2.16 0 100 4.32 2.16 2.16 0 10-.004-4.32zm0-96.37a2.155 2.155 0 10-2.162-2.15 2.154 2.154 0 002.157 2.15zm-7.2 2.88a2.155 2.155 0 102.162 2.16 2.163 2.163 0 00-2.171-2.16zm14.408 4.31a2.155 2.155 0 10-2.163-2.15 2.155 2.155 0 002.154 2.15zm-7.2 21.58a2.155 2.155 0 10-2.162-2.16 2.163 2.163 0 002.149 2.16zm-7.2 2.88a2.155 2.155 0 102.162 2.16 2.156 2.156 0 00-2.179-2.16zm14.408 4.31a2.155 2.155 0 10-2.163-2.15 2.155 2.155 0 002.146 2.15zm-14.408-18.7a2.16 2.16 0 102.162 2.16 2.163 2.163 0 00-2.179-2.16zm-13.565.17a2.14 2.14 0 00-.84-.17 2.17 2.17 0 00-1.991 1.32 2.16 2.16 0 001.991 3 2.16 2.16 0 002.16-2.16 2.168 2.168 0 00-1.337-1.99zm20.769 40.11a2.16 2.16 0 10-2.162-2.16 2.163 2.163 0 002.145 2.16zm-7.2 2.88a2.155 2.155 0 102.162 2.15 2.154 2.154 0 00-2.183-2.15zm14.408 4.31a2.155 2.155 0 10-2.163-2.16 2.163 2.163 0 002.142 2.16zm-14.408-18.7a2.16 2.16 0 102.162 2.16 2.163 2.163 0 00-2.183-2.16zm-13.565.17a2.14 2.14 0 00-.84-.17 2.16 2.16 0 100 4.32 2.14 2.14 0 00.84-.17 2.16 2.16 0 00-.021-3.98zm20.769 40.11a2.16 2.16 0 10-2.162-2.16 2.163 2.163 0 002.141 2.16zm-7.2 2.87a2.16 2.16 0 102.162 2.16 2.163 2.163 0 00-2.187-2.16zm14.408 0a2.16 2.16 0 102.16 2.16 2.163 2.163 0 00-2.185-2.16zm-14.408-14.38a2.155 2.155 0 102.162 2.16 2.156 2.156 0 00-2.187-2.16zm-13.565.17a2.14 2.14 0 00-.84-.17 2.155 2.155 0 00-1.991 1.32 2.1 2.1 0 00-.17.84 2.147 2.147 0 002.161 2.15 2.154 2.154 0 00.815-4.14zm6.364-50.51a2.155 2.155 0 100 4.31 2.155 2.155 0 10-.025-4.31zm-14.409 0a2.155 2.155 0 102.162 2.15 2.154 2.154 0 00-2.187-2.15zm14.409-14.39a2.16 2.16 0 100 4.32 2.166 2.166 0 001.988-1.32 2.16 2.16 0 00-2.013-3zm-21.613 21.58a2.155 2.155 0 102.162 2.16 2.155 2.155 0 00-2.187-2.16zm14.409 0a2.155 2.155 0 102.16 2.16 2.156 2.156 0 00-2.185-2.16zm7.2 21.57a2.16 2.16 0 100 4.32 2.16 2.16 0 00-.021-4.32zm-14.409 0a2.16 2.16 0 102.162 2.16 2.162 2.162 0 00-2.183-2.16zm-14.406 0a2.16 2.16 0 102.16 2.16 2.163 2.163 0 00-2.181-2.16zm28.815-14.38a2.157 2.157 0 00-2.161 2.16 2.191 2.191 0 00.169.84 2.162 2.162 0 001.992 1.31 2.155 2.155 0 10-.021-4.31zm-14.409 0a2.155 2.155 0 102.162 2.16 2.162 2.162 0 00-2.183-2.16zm-14.406 0a2.155 2.155 0 102.16 2.16 2.163 2.163 0 00-2.181-2.16zm7.2 21.58a2.155 2.155 0 102.162 2.15 2.153 2.153 0 00-2.181-2.15zm14.409 0a2.155 2.155 0 102.16 2.15 2.154 2.154 0 00-2.179-2.15zm-14.409-14.39a2.16 2.16 0 102.162 2.16 2.162 2.162 0 00-2.181-2.16zm-14.406 0a2.16 2.16 0 102.162 2.16 2.162 2.162 0 00-2.181-2.16zm36.019 35.96a2.16 2.16 0 100 4.32 2.166 2.166 0 001.988-1.32 2.16 2.16 0 00-2.007-3zm0-14.38a2.162 2.162 0 00-1.992 1.31 2.191 2.191 0 00-.169.84 2.117 2.117 0 00.169.84 2.155 2.155 0 001.992 1.32 2.151 2.151 0 001.988-1.32 2.1 2.1 0 00.171-.84 2.15 2.15 0 00-2.178-2.15zm-14.409 0a2.155 2.155 0 102.162 2.15 2.154 2.154 0 00-2.181-2.15z" transform="translate(-124 -5871)" fill="#34c3ff" fill-rule="evenodd"/></svg>

<svg id="Группа_1" data-name="Группа 1" xmlns="http://www.w3.org/2000/svg" xmlns:xlink="http://www.w3.org/1999/xlink" width="1627" height="369" viewBox="0 0 1627 369">
  <defs>
    <style>
      .cls-1 {
        fill: #fe3e57;
        filter: url(#filter);
      }

      .cls-1, .cls-2 {
        fill-rule: evenodd;
      }

      .cls-2 {
        fill: #34c3ff;
      }
    </style>
    <filter id="filter" x="1685" y="6174" width="66" height="66" filterUnits="userSpaceOnUse">
      <feOffset result="offset" dy="3" in="SourceAlpha"/>
      <feGaussianBlur result="blur" stdDeviation="3.162"/>
      <feFlood result="flood" flood-color="#fe3e57" flood-opacity="0.5"/>
      <feComposite result="composite" operator="in" in2="blur"/>
      <feBlend result="blend" in="SourceGraphic"/>
    </filter>
  </defs>
  <path class="cls-1" d="M1717.5,6180a23.5,23.5,0,1,0,23.5,23.5A23.5,23.5,0,0,0,1717.5,6180Zm0,42.19a18.7,18.7,0,1,1,18.7-18.69A18.689,18.689,0,0,1,1717.5,6222.19Zm0.02-24.3a5.605,5.605,0,1,0,5.59,5.63A5.614,5.614,0,0,0,1717.52,6197.89Z" transform="translate(-124 -5871)"/>
  <path class="cls-2" d="M205.4,5899.77a2.155,2.155,0,1,0,2.161,2.15A2.154,2.154,0,0,0,205.4,5899.77Zm-14.406,0a2.155,2.155,0,1,0,2.16,2.15A2.155,2.155,0,0,0,190.992,5899.77Zm0-14.39a2.16,2.16,0,1,0,2.16,2.16A2.163,2.163,0,0,0,190.992,5885.38Zm-14.407,0h0a2.16,2.16,0,1,0,0,4.32h0A2.16,2.16,0,1,0,176.585,5885.38Zm21.61,21.58a2.155,2.155,0,1,0,2.16,2.16A2.156,2.156,0,0,0,198.2,5906.96Zm14.407,0a2.155,2.155,0,1,0,2.161,2.16A2.157,2.157,0,0,0,212.6,5906.96ZM198.2,5892.57a2.16,2.16,0,1,0,2.16,2.16A2.163,2.163,0,0,0,198.2,5892.57Zm-14.407,0a2.16,2.16,0,1,0,2.161,2.16A2.163,2.163,0,0,0,183.788,5892.57Zm36.017,35.96a2.16,2.16,0,1,0,2.16,2.16A2.162,2.162,0,0,0,219.805,5928.53Zm-14.407,0a2.16,2.16,0,1,0,2.161,2.16A2.162,2.162,0,0,0,205.4,5928.53Zm-14.406,0a2.16,2.16,0,1,0,2.16,2.16A2.163,2.163,0,0,0,190.992,5928.53Zm28.813-14.38a2.155,2.155,0,1,0,2.16,2.16A2.162,2.162,0,0,0,219.805,5914.15Zm-14.407,0a2.155,2.155,0,1,0,2.161,2.16A2.162,2.162,0,0,0,205.4,5914.15Zm-14.406,0a2.155,2.155,0,1,0,2.16,2.16A2.163,2.163,0,0,0,190.992,5914.15Zm-14.407,0h0a2.155,2.155,0,1,0,0,4.31h0A2.155,2.155,0,1,0,176.585,5914.15Zm21.61,21.58a2.155,2.155,0,1,0,2.16,2.15A2.154,2.154,0,0,0,198.2,5935.73Zm14.407,0a2.155,2.155,0,1,0,2.161,2.15A2.154,2.154,0,0,0,212.6,5935.73ZM198.2,5921.34a2.16,2.16,0,1,0,2.16,2.16A2.163,2.163,0,0,0,198.2,5921.34Zm16.567,2.16a2.161,2.161,0,1,0-2.161,2.16A2.163,2.163,0,0,0,214.762,5923.5Zm12.247-2.16a2.16,2.16,0,1,0,2.16,2.16A2.163,2.163,0,0,0,227.009,5921.34Zm-43.221,0a2.16,2.16,0,1,0,2.161,2.16A2.163,2.163,0,0,0,183.788,5921.34Zm7.2,35.96a2.16,2.16,0,1,0,2.16,2.16A2.163,2.163,0,0,0,190.992,5957.3Zm14.406-14.38a2.155,2.155,0,1,0,2.161,2.15A2.154,2.154,0,0,0,205.4,5942.92Zm-14.406,0a2.155,2.155,0,1,0,2.16,2.15A2.155,2.155,0,0,0,190.992,5942.92Zm-14.407,0h0a2.155,2.155,0,1,0,0,4.31h0A2.155,2.155,0,1,0,176.585,5942.92Zm21.61,7.19a2.155,2.155,0,1,0,2.16,2.16A2.156,2.156,0,0,0,198.2,5950.11Zm-14.407,0a2.155,2.155,0,1,0,2.161,2.16A2.157,2.157,0,0,0,183.788,5950.11Zm-7.2,21.57h0a2.16,2.16,0,1,0,0,4.32h0A2.16,2.16,0,1,0,176.585,5971.68Zm0-96.37a2.155,2.155,0,1,0-2.162-2.15A2.154,2.154,0,0,0,176.584,5875.31Zm-7.2,2.88a2.155,2.155,0,1,0,2.162,2.16A2.163,2.163,0,0,0,169.38,5878.19Zm14.408,4.31a2.155,2.155,0,1,0-2.163-2.15A2.155,2.155,0,0,0,183.788,5882.5Zm-7.2,21.58a2.155,2.155,0,1,0-2.162-2.16A2.163,2.163,0,0,0,176.584,5904.08Zm-7.2,2.88a2.155,2.155,0,1,0,2.162,2.16A2.156,2.156,0,0,0,169.38,5906.96Zm14.408,4.31a2.155,2.155,0,1,0-2.163-2.15A2.155,2.155,0,0,0,183.788,5911.27Zm-14.408-18.7a2.16,2.16,0,1,0,2.162,2.16A2.163,2.163,0,0,0,169.38,5892.57Zm-13.565.17a2.14,2.14,0,0,0-.84-0.17h0a2.17,2.17,0,0,0-1.991,1.32,2.16,2.16,0,0,0,1.991,3h0a2.16,2.16,0,0,0,2.16-2.16A2.168,2.168,0,0,0,155.815,5892.74Zm20.769,40.11a2.16,2.16,0,1,0-2.162-2.16A2.163,2.163,0,0,0,176.584,5932.85Zm-7.2,2.88a2.155,2.155,0,1,0,2.162,2.15A2.154,2.154,0,0,0,169.38,5935.73Zm14.408,4.31a2.155,2.155,0,1,0-2.163-2.16A2.163,2.163,0,0,0,183.788,5940.04Zm-14.408-18.7a2.16,2.16,0,1,0,2.162,2.16A2.163,2.163,0,0,0,169.38,5921.34Zm-13.565.17a2.14,2.14,0,0,0-.84-0.17h0a2.16,2.16,0,1,0,0,4.32h0a2.14,2.14,0,0,0,.84-0.17A2.16,2.16,0,0,0,155.815,5921.51Zm20.769,40.11a2.16,2.16,0,1,0-2.162-2.16A2.163,2.163,0,0,0,176.584,5961.62Zm-7.2,2.87a2.16,2.16,0,1,0,2.162,2.16A2.163,2.163,0,0,0,169.38,5964.49Zm14.408,0a2.16,2.16,0,1,0,2.16,2.16A2.163,2.163,0,0,0,183.788,5964.49Zm-14.408-14.38a2.155,2.155,0,1,0,2.162,2.16A2.156,2.156,0,0,0,169.38,5950.11Zm-13.565.17a2.14,2.14,0,0,0-.84-0.17h0a2.155,2.155,0,0,0-1.991,1.32,2.1,2.1,0,0,0-.17.84,2.147,2.147,0,0,0,2.161,2.15h0A2.154,2.154,0,0,0,155.815,5950.28Zm6.364-50.51h0a2.155,2.155,0,1,0,0,4.31h0A2.155,2.155,0,1,0,162.179,5899.77Zm-14.409,0a2.155,2.155,0,1,0,2.162,2.15A2.154,2.154,0,0,0,147.77,5899.77Zm14.409-14.39h0a2.16,2.16,0,1,0,0,4.32h0a2.166,2.166,0,0,0,1.988-1.32A2.16,2.16,0,0,0,162.179,5885.38Zm-21.613,21.58a2.155,2.155,0,1,0,2.162,2.16A2.155,2.155,0,0,0,140.566,5906.96Zm14.409,0a2.155,2.155,0,1,0,2.16,2.16A2.156,2.156,0,0,0,154.975,5906.96Zm7.2,21.57h0a2.16,2.16,0,1,0,0,4.32h0A2.16,2.16,0,0,0,162.179,5928.53Zm-14.409,0a2.16,2.16,0,1,0,2.162,2.16A2.162,2.162,0,0,0,147.77,5928.53Zm-14.406,0a2.16,2.16,0,1,0,2.16,2.16A2.163,2.163,0,0,0,133.364,5928.53Zm28.815-14.38h0a2.157,2.157,0,0,0-2.161,2.16,2.191,2.191,0,0,0,.169.84,2.162,2.162,0,0,0,1.992,1.31h0A2.155,2.155,0,1,0,162.179,5914.15Zm-14.409,0a2.155,2.155,0,1,0,2.162,2.16A2.162,2.162,0,0,0,147.77,5914.15Zm-14.406,0a2.155,2.155,0,1,0,2.16,2.16A2.163,2.163,0,0,0,133.364,5914.15Zm7.2,21.58a2.155,2.155,0,1,0,2.162,2.15A2.153,2.153,0,0,0,140.566,5935.73Zm14.409,0a2.155,2.155,0,1,0,2.16,2.15A2.154,2.154,0,0,0,154.975,5935.73Zm-14.409-14.39a2.16,2.16,0,1,0,2.162,2.16A2.162,2.162,0,0,0,140.566,5921.34Zm-14.406,0a2.16,2.16,0,1,0,2.162,2.16A2.162,2.162,0,0,0,126.16,5921.34Zm36.019,35.96h0a2.16,2.16,0,1,0,0,4.32h0a2.166,2.166,0,0,0,1.988-1.32A2.16,2.16,0,0,0,162.179,5957.3Zm0-14.38h0a2.162,2.162,0,0,0-1.992,1.31,2.191,2.191,0,0,0-.169.84,2.117,2.117,0,0,0,.169.84,2.155,2.155,0,0,0,1.992,1.32h0a2.151,2.151,0,0,0,1.988-1.32,2.1,2.1,0,0,0,.171-0.84A2.15,2.15,0,0,0,162.179,5942.92Zm-14.409,0a2.155,2.155,0,1,0,2.162,2.15A2.154,2.154,0,0,0,147.77,5942.92Z" transform="translate(-124 -5871)"/>
</svg>
